X: 386
T:Du mein amant
N: Derived from Jos2905-Du_mien_amant.krn
C: Josquin des Prez
%%abc-version 2.0
%%abcx-abcm2ps-target-version 5.9.1 (29 Sep 2008)
%%abc-creator hum2abc beta
%%abcx-conversion-date 2019/02/12 16:15:55
%%abc-edited-by Jesse Rodin
%%abc-edited-by Will Watson 15/09/2011
%%abcx-initial-encoding-date 2011/09/15/
%%humdrum-veritas 3980122910
%%humdrum-veritas-data 2562746189
%%linebreak <none>
%%barnumbers 0
L: 1/4
M: 2/1
Q: 1/2=120
V: 1 clef=treble
V: 2 clef=treble-8
V: 3 clef=treble-8
V: 4 clef=treble-8
V: 5 clef=bass
K: C
[V:1] D8 | 
[V:2] z8 | 
[V:3] z4d4 | 
[V:4] z8 | 
[V:5] D,8 | 
[V:1] G4G4 | 
[V:2] z8 | 
[V:3] B4c4 | 
[V:4] z8 | 
[V:5] E,4E,4 | 
[V:1] F8 | 
[V:2] z8 | 
[V:3] d4z2A2 | 
[V:4] D8 | 
[V:5] D,8 | 
[V:1] z4D4 | 
[V:2] z8 | 
[V:3] B4B4 | 
[V:4] G4G4 | 
[V:5] z8 | 
[V:1] A4A2A2- | 
[V:2] A8 | 
[V:3] A2DEFGA2 | 
[V:4] F8 | 
[V:5] z4D,4 | 
[V:1] AGFEF2F2 | 
[V:2] d4d4 | 
[V:3] D2A2D2A2- | 
[V:4] z4D4 | 
[V:5] D,4D,4 | 
[V:1] E8 | 
[V:2] c8 | 
[V:3] A2GFE4 | 
[V:4] A4A2A2- | 
[V:5] A,,8 | 
[V:1] z4F4 | 
[V:2] z4A4 | 
[V:3] z4z2A2 | 
[V:4] AGFEF2F2 | 
[V:5] D,8 | 
[V:1] G4G2G2- | 
[V:2] e4e2e2- | 
[V:3] c4c4 | 
[V:4] E8 | 
[V:5] C,8 | 
[V:1] GFEDE2E2 | 
[V:2] edcBc2c2 | 
[V:3] c4c4 | 
[V:4] z8 | 
[V:5] z4C,4 | 
[V:1] D4z2D2 | 
[V:2] B8 | 
[V:3] d2d2d2d2 | 
[V:4] z8 | 
[V:5] G,4G,2G,2- | 
[V:1] G4G4 | 
[V:2] z8 | 
[V:3] B4c4 | 
[V:4] z8 | 
[V:5] G,F,E,D,E,2E,2 | 
[V:1] F4z2D2 | 
[V:2] z8 | 
[V:3] d4z2d2 | 
[V:4] z8 | 
[V:5] D,4D,4 | 
[V:1] G4G4 | 
[V:2] z8 | 
[V:3] B4c4 | 
[V:4] z8 | 
[V:5] E,4E,4 | 
[V:1] F8 | 
[V:2] z8 | 
[V:3] d4z2A2 | 
[V:4] D8 | 
[V:5] D,8 | 
[V:1] z4D4 | 
[V:2] z8 | 
[V:3] B4B4 | 
[V:4] G4G4 | 
[V:5] z8 | 
[V:1] A4A2A2- | 
[V:2] A8 | 
[V:3] A2DEFGA2 | 
[V:4] F8 | 
[V:5] z4D,4 | 
[V:1] AGFEF2F2 | 
[V:2] d4d4 | 
[V:3] D2A2D2A2- | 
[V:4] z4D4 | 
[V:5] D,4D,4 | 
[V:1] E8 | 
[V:2] c8 | 
[V:3] A2GFE4 | 
[V:4] A4A2A2- | 
[V:5] A,,4A,,4 | 
[V:1] z4F4 | 
[V:2] z4A4 | 
[V:3] z4z2A2 | 
[V:4] AGFEF2F2 | 
[V:5] D,4D,4 | 
[V:1] G4G4 | 
[V:2] e4e2e2- | 
[V:3] c4B4 | 
[V:4] E8 | 
[V:5] C,3D,E,4 | 
[V:1] A4E3F | 
[V:2] edcBc2c2 | 
[V:3] A4A4 | 
[V:4] z8 | 
[V:5] A,,8 | 
[V:1] G8 | 
[V:2] B8 | 
[V:3] G4z2B2 | 
[V:4] G8 | 
[V:5] E,8 | 
[V:1] z8 | 
[V:2] z8 | 
[V:3] c4c4 | 
[V:4] F4E4 | 
[V:5] z8 | 
[V:1] z4F4 | 
[V:2] d8 | 
[V:3] d8 | 
[V:4] D8 | 
[V:5] z4D,4 | 
[V:1] G4G4 | 
[V:2] c4B4 | 
[V:3] z8 | 
[V:4] z8 | 
[V:5] E,4E,4 | 
[V:1] A8 | 
[V:2] A8 | 
[V:3] z4e4 | 
[V:4] z4c4 | 
[V:5] A,,4z2A,,2 | 
[V:1] z8 | 
[V:2] z8 | 
[V:3] f4f4 | 
[V:4] d6A2 | 
[V:5] D,4D,4 | 
[V:1] z4B4 | 
[V:2] z4g4 | 
[V:3] e4e4 | 
[V:4] c4B4 | 
[V:5] C,3D,E,4 | 
[V:1] c2c2c4 | 
[V:2] a4e4 | 
[V:3] c8 | 
[V:4] A8 | 
[V:5] A,,8 | 
[V:1] B4A4 | 
[V:2] g4f4 | 
[V:3] z8 | 
[V:4] z8 | 
[V:5] z8 | 
[V:1] z2c2c2c2 | 
[V:2] e8 | 
[V:3] c8 | 
[V:4] A8 | 
[V:5] z8 | 
[V:1] B4A4 | 
[V:2] z8 | 
[V:3] d4d4 | 
[V:4] G4F4 | 
[V:5] z8 | 
[V:1] G4z2E2 | 
[V:2] e8 | 
[V:3] e8 | 
[V:4] E8 | 
[V:5] z4C,4 | 
[V:1] A4A4 | 
[V:2] d4c4 | 
[V:3] z8 | 
[V:4] z8 | 
[V:5] D,4A,,4 | 
[V:1] G4z2B2 | 
[V:2] B8 | 
[V:3] z4e4 | 
[V:4] z4G4 | 
[V:5] E,8 | 
[V:1] c3Ac2B2- | 
[V:2] z8 | 
[V:3] e6e2 | 
[V:4] A6E2 | 
[V:5] z8 | 
[V:1] BGB2A4 | 
[V:2] z4d4 | 
[V:3] d2G2A4 | 
[V:4] G4F4 | 
[V:5] z8 | 
[V:1] G2G2G2G2 | 
[V:2] e6B2 | 
[V:3] c2G2G2G2 | 
[V:4] E8 | 
[V:5] z2E,2E,2E,2 | 
[V:1] F4E3F | 
[V:2] d4c4 | 
[V:3] A4A4 | 
[V:4] z8 | 
[V:5] D,3C,A,,4 | 
[V:1] G8 | 
[V:2] B8 | 
[V:3] G4B4 | 
[V:4] G8 | 
[V:5] E,8 | 
[V:1] z8 | 
[V:2] z8 | 
[V:3] c4c4 | 
[V:4] F4E4 | 
[V:5] z8 | 
[V:1] z4F4 | 
[V:2] d8 | 
[V:3] d8 | 
[V:4] D8 | 
[V:5] z4D,4 | 
[V:1] G4G4 | 
[V:2] c4B4 | 
[V:3] z8 | 
[V:4] z8 | 
[V:5] E,4E,4 | 
[V:1] A8 | 
[V:2] A8 | 
[V:3] z4e4 | 
[V:4] z4c4 | 
[V:5] A,,4A,,4 | 
[V:1] z8 | 
[V:2] z8 | 
[V:3] f6f2 | 
[V:4] d6A2 | 
[V:5] D,6D,2 | 
[V:1] z4B4 | 
[V:2] z4g4 | 
[V:3] e4e4 | 
[V:4] c4B4 | 
[V:5] C,2A,,2E,4 | 
[V:1] c6c2 | 
[V:2] a6e2 | 
[V:3] c8 | 
[V:4] A8 | 
[V:5] A,,4z2A,,2 | 
[V:1] B4A4 | 
[V:2] g4f4 | 
[V:3] z2G2A2F2 | 
[V:4] z8 | 
[V:5] E,4F,4 | 
[V:1] G4z2B2 | 
[V:2] e8 | 
[V:3] c4B4 | 
[V:4] z4G4 | 
[V:5] C,3D,E,4 | 
[V:1] c4A2c2- | 
[V:2] z8 | 
[V:3] A8 | 
[V:4] A4A2A2- | 
[V:5] A,,8 | 
[V:1] cBG2A4 | 
[V:2] z4d4 | 
[V:3] z4A4 | 
[V:4] AGE2F4 | 
[V:5] z8 | 
[V:1] G2E2G2C2 | 
[V:2] e4e2e2- | 
[V:3] c6c2 | 
[V:4] E8- | 
[V:5] z2A,,2E,2A,,2 | 
[V:1] G4E3F | 
[V:2] edB2c4 | 
[V:3] B2G2A4 | 
[V:4] E8 | 
[V:5] E,4A,,4 | 
[V:1] G8 ||  
[V:2] B8 ||  
[V:3] G8 ||  
[V:4] E8 ||  
[V:5] E,8 ||  
[V:1] [M:2/1]A8 | 
[V:2] [M:2/1]z8 | 
[V:3] [M:2/1]D8 | 
[V:4] [M:2/1]F8 | 
[V:5] [M:2/1]z8 | 
[V:1] D8 | 
[V:2] z8 | 
[V:3] _B8 | 
[V:4] G8 | 
[V:5] z8 | 
[V:1] E8 | 
[V:2] c8 | 
[V:3] A8 | 
[V:4] E8 | 
[V:5] A,,8 | 
[V:1] F4F4 | 
[V:2] d8 | 
[V:3] A4d4- | 
[V:4] D4D4 | 
[V:5] D,8 | 
[V:1] G4G4 | 
[V:2] B8 | 
[V:3] d4d4 | 
[V:4] G4G4 | 
[V:5] G,,8 | 
[V:1] A4A2F2- | 
[V:2] A4A4 | 
[V:3] d8 | 
[V:4] F4D2A2- | 
[V:5] D,4D,4 | 
[V:1] FEDCD4 | 
[V:2] d4d4 | 
[V:3] D4A4 | 
[V:4] AGFEF4 | 
[V:5] D,4D,4 | 
[V:1] E8- | 
[V:2] c4A2e2- | 
[V:3] A4A4 | 
[V:4] E8 | 
[V:5] A,,4A,,4 | 
[V:1] E8- | 
[V:2] edcBc4 | 
[V:3] G2E2A4 | 
[V:4] z8 | 
[V:5] C,6D,2 | 
[V:1] E8 | 
[V:2] B8 | 
[V:3] G8 | 
[V:4] z8 | 
[V:5] E,8 | 
[V:1] z8 | 
[V:2] z8 | 
[V:3] z4e4 | 
[V:4] E8 | 
[V:5] z8 | 
[V:1] A8 | 
[V:2] z8 | 
[V:3] c4d4 | 
[V:4] F4F4 | 
[V:5] z8 | 
[V:1] G4G4 | 
[V:2] B8 | 
[V:3] e4e4 | 
[V:4] E4E4 | 
[V:5] E,8 | 
[V:1] A4A4 | 
[V:2] c4c4 | 
[V:3] e4e4- | 
[V:4] A4A4 | 
[V:5] A,,4A,,4 | 
[V:1] B3AB2G2- | 
[V:2] B4B4 | 
[V:3] e2dcB2e2- | 
[V:4] G4G4 | 
[V:5] E,4E,4 | 
[V:1] G2cBAGA2- | 
[V:2] e4e4 | 
[V:3] e2c3BAG | 
[V:4] E8 | 
[V:5] C,4C,4 | 
[V:1] AGG4^F2 | 
[V:2] d4d4 | 
[V:3] F2G2A4 | 
[V:4] z8 | 
[V:5] D,4D,4 | 
[V:1] G8 | 
[V:2] B8 | 
[V:3] G8 | 
[V:4] z8 | 
[V:5] G,,8 | 
[V:1] z8 | 
[V:2] z8 | 
[V:3] z2d2d2d2- | 
[V:4] G8 | 
[V:5] G,,8 | 
[V:1] z2G2G2G2- | 
[V:2] z8 | 
[V:3] d2cBc4 | 
[V:4] E4E4 | 
[V:5] z8 | 
[V:1] G2^FEF4 | 
[V:2] d8 | 
[V:3] d4d4- | 
[V:4] D4D4 | 
[V:5] z8 | 
[V:1] G4G4 | 
[V:2] B4B4 | 
[V:3] d4d4 | 
[V:4] G4G4 | 
[V:5] z4G,,4 | 
[V:1] A4F4- | 
[V:2] A4A4 | 
[V:3] d4d4 | 
[V:4] F8 | 
[V:5] D,4D,4 | 
[V:1] F2F2F3G | 
[V:2] d4d4 | 
[V:3] d4f4- | 
[V:4] _B8 | 
[V:5] _B,,4B,,4 | 
[V:1] A8- | 
[V:2] c8 | 
[V:3] f2edc2c2 | 
[V:4] A8 | 
[V:5] F,4F,3E, | 
[V:1] A4A4 | 
[V:2] f8 | 
[V:3] d2DEFGA2- | 
[V:4] z8 | 
[V:5] D,4D,4 | 
[V:1] c6B2 | 
[V:2] e8 | 
[V:3] ABcdefg2 | 
[V:4] z8 | 
[V:5] C,2A,,B,,C,D,E,2 | 
[V:1] A2G2F4 | 
[V:2] z8 | 
[V:3] f2e3ddc | 
[V:4] z8 | 
[V:5] F,2C,2D,4 | 
[V:1] E8 | 
[V:2] z8 | 
[V:3] e4c4 | 
[V:4] A8 | 
[V:5] A,,4z4 | 
[V:1] z4F4 | 
[V:2] z8 | 
[V:3] d4A4 | 
[V:4] F4F4 | 
[V:5] D,8 | 
[V:1] G4G4 | 
[V:2] e8 | 
[V:3] c4c4 | 
[V:4] E4E4 | 
[V:5] C,8 | 
[V:1] A4A4 | 
[V:2] c4c4 | 
[V:3] c2c2A2A2 | 
[V:4] F4F4 | 
[V:5] A,,8 | 
[V:1] D4D4 | 
[V:2] B4B4 | 
[V:3] B3GG4 | 
[V:4] G4G4 | 
[V:5] G,,4G,,4 | 
[V:1] E4E4 | 
[V:2] c4c4 | 
[V:3] z2G2A4- | 
[V:4] E8 | 
[V:5] C,4A,,4 | 
[V:1] F6D2 | 
[V:2] d4d4 | 
[V:3] A2A2F2F2 | 
[V:4] D8- | 
[V:5] D,4D,4 | 
[V:1] D8- | 
[V:2] _B8 | 
[V:3] G2D2G4 | 
[V:4] D8- | 
[V:5] G,,8 | 
[V:1] D8 |]  
[V:2] A8 |]  
[V:3] F8 |]  
[V:4] D8 |]  
[V:5] D,8 |]  



